X:20
T:Lucy Campbell
M:C|
R:Reel
S:phelan-2/44
L:1/8
K:D
(3ABA FA   D2 dB | ADFA BEEE      | (3ABA FA   defe  | dBAF ADDD  |
(3ABA FA   D2 dB | ADFA BEEE      | (3ABA FA   defe  | dBAF ADDD ||
dBAB  defe       | d2   cA   BEEE | dBAB  defe       | dBAF ADDD  |
dBAB  defe       | dBBB gBBB      | dBAB  defe       | dBAF ADDD ||
faaf  defg       | adfa bgef      | a2    af   defe  | dBAF ADDD  |
faaf  defg       | adfa bgef      | g2    ge   f2 fe | dBAF ADDD ||
dfff  dfef       | dfff afef      | dffe  ~f3  e     | dBAF ADDD  |
dfff  dfef       | dfff afef      | ~g3   e    ~f3 e | dBAF ADDD  |]

